X:1
T:Chorale: Zion hört die Wächter singen, adapted to keybaord (A = 415 Hz)
T:From: Wachet auf, ruft uns die Stimme, BWV 140
T:J. S. Bach
%%score { 1 | 2 | 3 }
L:1/8
M:4/4
K:D
V:1 treble nm="Harp"
V:2 alto 
V:3 bass 
V:1
 A, | D/E/F FE GFA,G, | F/D/E G,F, CD z A, | D/E/F FE GFA,G, | F/D/E G,F, CD z A | %5
[K:D] A2 G/F/E/D/ E/D/C/B,/ A,B,/C/ | D/E/F/E/ G/F/E/D/ FE z A, | F ^G2 A D/C/D z B, | %8
 ^G A2 B D/C/D z d | c/B/A- A/^G/A- A/G/F/E/ D/C/B,/A,/ | B,/C/D E/4D/4C/D- D/^G/A/B/ A/G/F/E/ | %11
 AE D/4C/4D/4C/4B,/A,/ A,/D/C/B,/ CA, | F,>^G, A,/4G,/4A,/4G,/4A,/4G,/4F,/4G,/4 A,2 z A, | %13
 D/E/F FE GFA,G, | F/D/E G,F, CD z A, | D/E/F FE GFA,G, | F/D/E G,F, CD z E | F ^G2 A D/C/D z D | %18
 ^G A2 B E/D/E z2 | z2 z A A2 G/F/E/D/ | E/D/C/B,/ A,B,/C/ D/E/F/E/ G/F/E/D/ | FE z2 z2 z A, | %22
 D/E/F FE GFA,G, | F/D/E G,F, CD z A, | D/E/F FE GFA,G, | F/D/E G,F, CD z A | %26
 A2 G/F/E/D/ E/D/C/B,/ A,B,/C/ | D/E/F/E/ G/F/E/D/ FE z E | F ^G2 A E/4D/4C/D z B, | %29
 ^G A2 B E/4D/4C/D z d | c/B/B/4A/4B/4A/4 B/4A/4^G/A- A/G/F/E/ D/C/B,/A,/ | %31
 B,/C/D E/4D/4C/D- D/^G/A/B/ A/G/F/E/ | AE D/4C/4D/4C/4B,/A,/ A,/D/C/B,/ CA, | %33
 F,>^G, A,/4G,/4A,/4G,/4G,/F,/4G,/4 A,2 z A, | D/E/F FE GFA,G, | F/D/E G,F, CD z A, | %36
 D/E/F FE GFA,G, | F/D/E G,F, CD z E | F ^G2 A D/C/D z D | ^G A2 B E/D/E z2 | z2 z A A2 G/F/E/D/ | %41
 E/D/C/B,/ A,B,/C/ D/E/F/E/ G/F/E/D/ | FE z2 z2 z A | A2 G/F/E/D/ E/D/C/B,/ A,B,/C/ | %44
 D/E/F/E/ G/F/E/D/ FE z A, | F ^G2 A D/C/D z B, | ^G A2 B D/C/D z d | %47
 c/B/A- A/^G/A- A/G/F/E/ D/C/B,/A,/ | B,/C/D E/4D/4C/D- D/^G/A/B/ A/G/F/E/ | %49
 AE D/4C/4D/4C/4B,/A,/ A,/D/C/B,/ CA, | F,>^G, A,/4G,/4A,/4G,/4G,/F,/4G,/4 A,2 z B, | %51
 D E2 F A,/G,/A, z A | A2 G/F/E/D/ E/D/C/B,/ A,B,/C/ | D/E/F/E/ G/F/E/D/ FE z2 | z2 z F B/c/d dc | %55
 edFE d/B/c ED | ^AB z F F2 E/D/C/B,/ | C/B,/^A,/^G,/ F,G,/A,/ B,/C/D/C/ E/D/C/B,/ | %58
 DC z F, D ^E2 F | B,/A,/B, z ^G, ^E F2 ^G | B,/A,/B, z B A/^G/F- F/=F/^F- | %61
 F/E/D/C/ B,/A,/^G,/F,/ G,/A,/B,- B,/A,/B,- | B,/^E/F/^G/ F/E/^D/C/ FC B,/4A,/4B,/4A,/4^G,/F,/ | %63
 F,2 z2 z2 z A, | D/E/F FE GFA,G, | F/D/E G,F, CD z2 | z2 z A A2 G/F/E/D/ | %67
 E/D/C/B,/ A,B,/C/ D/E/F/E/ G/F/E/D/ | FE z D B c2 d | A/4G/4F/G z B c d2 e | %70
 G/F/G z E F/E/D- D/C/D | D/=c/B/A/ G/F/E/D/ E/F/G- G/F/G- | G/C/D/E/ D/C/B,/A,/ AD F/E/D/C/ | %73
 D/G/F/E/ FD B,>C C>D | !fermata!D8 |] %75
V:2
 z | z8 | z8 | z8 | z8 |[K:D] z8 | z8 | z8 | z8 | z8 | z8 | z8 | z8 | z4 D,2 F,2 | %14
 A,2 A,2 A,2 A,2 | B,4 A,4 | z4 z2 A,2 | D2 A,2 DE F2 | E3 D C2 B,/A,/B, | A,4 z4 | z2 A,2 D2 A,2 | %21
 B,2 F,G,/A,/ G,F, E,2 | D,4 z4 | z8 | z8 | z8 | z8 | z8 | z8 | z8 | z8 | z8 | z8 | z8 | %34
 z4 D,2 F,2 | A,2 A,2 A,2 A,2 | B,4 A,4 | z4 z2 A,2 | D2 A,2 DE F2 | E3 D C2 C/4B,/4A,/B, | %40
 A,4 z4 | z2 A,2 D2 A,2 | B,2 F,G,/A,/ G,F, E,2 | D,4 z4 | z8 | z8 | z8 | z8 | z8 | z8 | %50
 z4 z2 A,2 | A,2 G,2 F,2 E,2 | D,4 z4 | z2 A,2 A,2 G,2 | F,2 E,2 D,4 | z8 | E,2 F,2 G,4 | F,4 z4 | %58
 z8 | z8 | z8 | z8 | z8 | z2 A,2 B,2 C2 | D4 z4 | z4 z2 D2 | F2 E2 D4 | z8 | z2 A,2 D2 A,2 | %69
 B,2 F,2 G,F, E,2 | D,8 | z8 | z8 | z8 | z8 |] %75
V:3
 z | D,,2 D,,2 D,,2 F,,2 | G,,2 A,,2 D,,2 z2 | D,,2 D,,2 D,,2 F,,2 | G,,2 A,,2 D,,2 z2 | %5
[K:D] F,,2 B,,2 A,,2 G,,2 | F,,2 D,,2 A,,2 C,2 | D,2 C,2 B,,2 D,2 | E,2 F,2 ^G,2 E,2 | %9
 A,2 ^G,2 F,2 E,2 | D,2 C,2 B,,2 D,2 | C,A,,E,E,, F,,^G,,A,,C,, | D,,B,,, E,,2 A,,B,,A,,G,, | %13
 F,,E,,D,,C,, B,,,2 B,,2 | F,,2 A,,2 D,,2 F,,2 | G,,2 G,2 C,2 D,2 | B,,2 C,2 D,2 C,2 | %17
 B,,2 F,,2 B,,C, D,2- | D,C,F,,^G,, A,,C,,D,,E,, | A,,^G,,A,,B,, C,A,, D,2 | A,,2 G,,2 F,,2 D,,2 | %21
 G,,A,, B,,2 E,,2 A,,G,, | F,,2 D,2 C,2 D,2 | G,,2 A,,2 D,,2 z2 | D,,2 D,,2 D,,2 F,,2 | %25
 G,,2 A,,2 D,,2 z2 | F,,2 B,,2 A,,2 G,,2 | F,,2 D,,2 A,,2 C,2 | D,2 C,2 B,,2 D,2 | %29
 E,2 F,2 ^G,2 E,2 | A,2 ^G,2 F,2 E,2 | D,2 C,2 B,,2 D,2 | C,A,,E,E,, F,,^G,,A,,C,, | %33
 D,,B,,, E,,2 A,,B,,A,,G,, | F,,E,,D,,C,, B,,,2 B,,2 | F,,2 A,,2 D,,2 F,,2 | G,,2 G,2 C,2 D,2 | %37
 B,,2 C,2 D,2 C,2 | B,,2 F,,2 B,,C, D,2- | D,C,F,,^G,, A,,C,,D,,E,, | A,,^G,,A,,B,, C,A,, D,2 | %41
 A,,2 G,,2 F,,2 D,,2 | G,,A,, B,,2 E,,2 A,,G,, | F,,2 B,,2 A,,2 G,,2 | F,,2 D,,2 A,,2 C,2 | %45
 D,2 C,2 B,,2 D,2 | E,2 F,2 ^G,2 E,2 | A,2 ^G,2 F,2 E,2 | D,2 C,2 B,,2 D,2 | %49
 C,A,,E,E,, F,,^G,,A,,C,, | D,,B,,, E,,2 A,,B,,A,,G,, | F,,E,,D,,C,, D,,F,,G,,A,, | %52
 B,,C, D,2 A,,2 G,,2 | F,,2 D,,2 A,,B,,C,A,, | D,C,B,,^A,, B,,F,B,A, | G,2 D,2 E,2 F,2 | %56
 G,F,E,^D, E,=D,C,B,, | ^A,,F,,F,E, D,2 B,,2 | F,2 ^A,2 B,2 =A,2 | ^G,2 B,,2 C,2 D,2 | %60
 ^E,,2 C,,2 F,,2 =E,,2 | D,2 C,2 B,,2 A,,2 | ^G,,2 B,,2 A,,F,,C,C,, | F,,D,,E,,F,, G,,F,,G,,A,, | %64
 B,,A,,B,,C, D,2 B,,2 | G,,2 A,,2 B,,A,,B,,C, | D,C,D,E, F,E,F,G, | C,A,,A,G, F,2 D,2 | %68
 A,G, F,2 G,2 F,2 | E,2 D,2 E,2 A,,2 | B,,2 G,,2 A,,2 F,,2 | G,,F,,E,,D,, C,,2 E,,2 | %72
 A,,B,,A,,G,, F,,B,,G,,A,, | B,,C,D,F, G,E,A,A,, | !fermata!D,8 |] %75

